resources/svg/align-bottom.svg

<svg xmlns="http://www.w3.org/2000/svg" viewBox="0 0 24 24" fill="currentColor">
    <g>
        <path fill="none" d="M0 0h24v24H0z"/>
        <path d="M3 19h18v2H3v-2zm5-6h3l-4 4-4-4h3V3h2v10zm10 0h3l-4 4-4-4h3V3h2v10z"/>
    </g>
</svg>

<svg fill="currentColor" viewBox="0 0 24 24" xmlns="http://www.w3.org/2000/svg"><path d="M3 19H21V21H3V19ZM8 13H11L7 17L3 13H6V3H8V13ZM18 13H21L17 17L13 13H16V3H18V13Z"/></svg>
